X: 6780
T: Chapel Bell, The
R: jig
M: 6/8
K: Edorian
A|:B2E EF/G/A|Bec d2 f|edB BAF|d2e dBA|
B2E EF/G/A|Bec d2 f|edB BAF|AFE E2A:|
|:B2e efe|def f2e|dBB BAF|d2f edB|B2e efe|
[1 def f2e|dBB BAF|AFE E2A:|2 def b3|fed BAF|AFE E2A||

